X:4965
T:Paddy Wack. WM036
O:england
M:6/8
L:1/8
S:Wm.Mittell,1799
R:Jig
A:Kent
K:G
D|GBd gfg|edc BAG|GBd gfg|fddd2e/-f/|geg fdB|cec dBG|GBd cAF|GGGG2:|
|:z|ddd eee|dddA2G|ddd efg|fddd2e/-f/|geg fdB|cec dBG|GBd cAF|GGG G2:|]


